brandFactory_export/2.Regular/Pospago_2Regular.svg

<?xml version="1.0" encoding="UTF-8"?>
<svg width="24px" height="24px" viewBox="0 0 24 24" version="1.1" xmlns="http://www.w3.org/2000/svg" xmlns:xlink="http://www.w3.org/1999/xlink">
    <title>2.Regular/Pospago_2Regular</title>
    <g id="Symbols" stroke="none" stroke-width="1" fill="none" fill-rule="evenodd">
        <g id="2.Regular/Pospago_2Regular" fill="#5CB615" fill-rule="nonzero">
            <path d="M13.8285714,-6.21724894e-13 C15.1462185,-6.21724894e-13 16.1142857,0.332773109 16.789916,1.01176471 C17.3936975,1.62164502 17.7153054,2.46943641 17.7697978,3.59529371 L18.0840336,3.59663866 C18.2621849,3.59663866 18.4336134,3.66722689 18.5579832,3.79495798 L21.8352941,7.07226891 C21.9630252,7.19663866 22.0336134,7.36806723 22.0336134,7.54621849 L22.0336134,15.687395 C22.0336134,16.3159664 21.6134454,16.7394958 20.9848739,16.7394958 C20.7902083,16.7368652 19.675284,16.7383521 18.3458027,16.7391228 L17.7774454,16.739 L17.7781513,19.6806723 C17.7781513,21.0184874 17.4521008,21.9932773 16.7865546,22.6554622 C16.1210084,23.3109244 15.1563025,23.6302521 13.8285714,23.6302521 L5.96302521,23.6302521 C4.63529412,23.6302521 3.66722689,23.3109244 3.00504202,22.6554622 C2.33613445,21.989916 2.01344538,21.0184874 2.01344538,19.6806723 L2.01344538,3.94957983 C2.01344538,2.62521008 2.33613445,1.65714286 2.99831933,0.991596639 C3.6605042,0.32605042 4.63193277,-6.21724894e-13 5.96302521,-6.21724894e-13 L13.8285714,-6.21724894e-13 Z M13.8285714,1.34453782 L5.96302521,1.34453782 C5.00840336,1.34453782 4.34957983,1.5394958 3.94957983,1.9394958 C3.54957983,2.3394958 3.35798319,2.99831933 3.35798319,3.94957983 L3.35798319,19.6806723 C3.35798319,21.5798319 4.06386555,22.2857143 5.96302521,22.2857143 L13.8285714,22.2857143 C15.7277311,22.2857143 16.4336134,21.5798319 16.4336134,19.6806723 L16.4334454,16.739 L13.2302521,16.7394958 C12.5915966,16.7394958 12.1647059,16.3092437 12.1647059,15.6705882 L12.1647059,4.65882353 C12.1647059,4.02352941 12.5915966,3.59663866 13.2302521,3.59663866 L16.4235087,3.59561465 C16.3283446,2.00372478 15.5545375,1.34453782 13.8285714,1.34453782 Z M9.89915966,18.1546218 C10.7361345,18.1546218 11.2336134,18.6554622 11.2336134,19.492437 C11.2336134,19.902521 11.1159664,20.2285714 10.887395,20.4638655 C10.6588235,20.6991597 10.3058824,20.8302521 9.89579832,20.8302521 C9.48571429,20.8302521 9.14285714,20.702521 8.91092437,20.4638655 C8.6789916,20.2252101 8.56470588,19.8991597 8.56470588,19.492437 C8.56470588,18.6554622 9.06218487,18.1546218 9.89915966,18.1546218 Z M17.0884454,4.941 L13.5092437,4.94117647 L13.5092437,15.3915966 L20.6857143,15.3915966 L20.6854454,8.554 L19.7277311,8.55462185 C18.0504202,8.55462185 17.0890756,7.59327731 17.0890756,5.91596639 L17.0884454,4.941 Z M19.0689076,13.2773109 C19.3478992,13.2773109 19.5731092,13.502521 19.5731092,13.7815126 C19.5731092,14.0605042 19.3478992,14.2857143 19.0689076,14.2857143 L15.1260504,14.2857143 C14.8470588,14.2857143 14.6218487,14.0605042 14.6218487,13.7815126 C14.6218487,13.502521 14.8470588,13.2773109 15.1260504,13.2773109 L19.0689076,13.2773109 Z M19.0689076,11.3109244 C19.3478992,11.3109244 19.5731092,11.5361345 19.5731092,11.8151261 C19.5731092,12.0941176 19.3478992,12.3193277 19.0689076,12.3193277 L15.1260504,12.3193277 C14.8470588,12.3193277 14.6218487,12.0941176 14.6218487,11.8151261 C14.6218487,11.5361345 14.8470588,11.3109244 15.1260504,11.3109244 L19.0689076,11.3109244 Z M19.0689076,9.34453782 C19.3478992,9.34453782 19.5731092,9.5697479 19.5731092,9.8487395 C19.5731092,10.1277311 19.3478992,10.3529412 19.0689076,10.3529412 L15.1260504,10.3529412 C14.8470588,10.3529412 14.6218487,10.1277311 14.6218487,9.8487395 C14.6218487,9.5697479 14.8470588,9.34453782 15.1260504,9.34453782 L19.0689076,9.34453782 Z M18.4334454,5.573 L18.4336134,5.91596639 C18.4336134,6.38319328 18.5344538,6.71932773 18.7294118,6.91428571 C18.9243697,7.1092437 19.2605042,7.21008403 19.7277311,7.21008403 L20.0704454,7.21 L18.4334454,5.573 Z" id="Pospago_2Regular"></path>
        </g>
    </g>
</svg>

<svg width="24" height="24" viewBox="0 0 24 24" xmlns="http://www.w3.org/2000/svg"><path d="M13.829 0c1.317 0 2.285.333 2.96 1.012.605.61.926 1.457.98 2.583l.315.002c.178 0 .35.07.474.198l3.277 3.277a.66.66 0 01.199.474v8.141c0 .629-.42 1.052-1.05 1.052-.194-.002-1.309 0-2.638 0h-.569l.001 2.942c0 1.337-.326 2.312-.991 2.974-.666.656-1.63.975-2.958.975H5.963c-1.328 0-2.296-.32-2.958-.975-.669-.665-.992-1.637-.992-2.974V3.95c0-1.325.323-2.293.985-2.958C3.661.326 4.632 0 5.963 0h7.866zm0 1.345H5.963c-.955 0-1.613.194-2.013.594-.4.4-.592 1.06-.592 2.01v15.732c0 1.899.706 2.605 2.605 2.605h7.866c1.899 0 2.605-.706 2.605-2.605v-2.942H13.23c-.638 0-1.065-.43-1.065-1.068V4.659c0-.635.427-1.062 1.065-1.062l3.194-.001c-.096-1.592-.87-2.251-2.595-2.251zm-3.93 16.81c.837 0 1.335.5 1.335 1.337 0 .41-.118.737-.347.972-.228.235-.581.366-.991.366-.41 0-.753-.127-.985-.366-.232-.239-.346-.565-.346-.972 0-.837.497-1.337 1.334-1.337zM17.09 4.94h-3.58v10.45h7.177V8.555h-.958c-1.678 0-2.639-.96-2.639-2.638v-.975zm1.98 8.336a.504.504 0 110 1.009h-3.943a.504.504 0 110-1.009h3.943zm0-1.966a.504.504 0 110 1.008h-3.943a.504.504 0 110-1.008h3.943zm0-1.966a.504.504 0 110 1.008h-3.943a.504.504 0 110-1.008h3.943zm-.636-3.772v.343c0 .467.101.803.296.998.195.195.532.296.999.296h.342l-1.637-1.637z" fill="#5CB615" fill-rule="nonzero"/></svg>
